;FLAVOR:Marlin
;TIME:1784
;Filament used: 1.51625m
;Layer height: 0.2
;MINX:60.125
;MINY:64.588
;MINZ:0.2
;MAXX:139.875
;MAXY:135.399
;MAXZ:2.4
;Generated with Cura_SteamEngine 5.4.0
M82 ;absolute extrusion mode
M140 S65.0 ; set bed temp  ; set bed temperature and continue 
M104 S230.0   ; set hot end temperature and continue
M106 S190; fan on for correct PID
G4  P3000 ; wait 3 sec
;G1 X20 Y20 F3000 ; go to parking pos.
M109 S230.0   ; wait for hot end temperature to reach e.g. 210 °C
G1 E-5 F300
M106 S0; fan off
G28 ; Home all axes
G1 Z10 F300 ; Z raise
;BED_MESH_CALIBRATE PROFILE=mesh1 METHOD=automatic
G4  P1000 ; wait a second
; prime nozzle

;G1 X190 Y30 F7200 ; move to start
;G1 Z0.3 F800 ; Move to layer height
;G92 E0.0 
;G1 X190 Y170 E20 F800 ; print prime line
;G1 X189 Y170 F7200 ; move to start
;G1 X189 Y30 E40 F800 ; print prime line

;G1 X190 Y30 F7200 ; move to start
;G1 Z0.3 F800 ; Move to layer height
;G92 E0.0 
;G1 X185 Y170 E20 F800 ; print prime line
;G1 X184 Y170 F7200 ; move to start
;G1 X184 Y30 E40 F800 ; print prime line

G1 X30 Y181 F7200 ; move to start
G1 Z0.3 F800 ; Move to layer height
G92 E0.0 
G1 X170 Y181 E20 F800 ; print prime line
G1 X170 Y180 F7200 ; move to start
G1 X30 Y180 E40 F800 ; print prime line
G92 E0
G92 E0
G1 F4800 E-2
;LAYER_COUNT:12
;LAYER:0
M107 P1
G0 F7200 X63.466 Y67.626 Z0.2
;TYPE:SKIRT
G1 F1920 E0
G1 F1200 X64.136 Y67.032 E0.0335
G1 X65.249 Y66.233 E0.08477
G1 X66.155 Y65.728 E0.12358
G1 X67.143 Y65.298 E0.1639
G1 X68.552 Y64.865 E0.21905
G1 X69.218 Y64.735 E0.24444
G1 X70.82 Y64.588 E0.30464
G1 X101.85 Y64.641 E1.46571
G1 X103.23 Y64.882 E1.51813
G1 X103.582 Y64.994 E1.53195
G1 X104.847 Y65.534 E1.58342
G1 X105.578 Y65.966 E1.61519
G1 X106.292 Y66.495 E1.64844
G1 X114.249 Y73.356 E2.04157
G1 X118.208 Y73.356 E2.1897
G1 X118.438 Y72.919 E2.20818
G1 X118.467 Y72.789 E2.21316
G1 X118.869 Y71.513 E2.26322
G1 X119.161 Y70.84 E2.29067
G1 X119.835 Y69.629 E2.34253
G1 X120.66 Y68.487 E2.39525
G1 X121.377 Y67.705 E2.43494
G1 X122.031 Y67.114 E2.46793
G1 X122.943 Y66.434 E2.51049
G1 X124.022 Y65.798 E2.55736
G1 X125.261 Y65.255 E2.60798
G1 X126.243 Y64.95 E2.64645
G1 X127.798 Y64.658 E2.70565
G1 X128.977 Y64.589 E2.74984
G1 X130 Y64.634 E2.78816
G1 X131.01 Y64.774 E2.82631
G1 X132.18 Y65.067 E2.87144
G1 X133.193 Y65.433 E2.91175
G1 X134.333 Y65.995 E2.9593
G1 X135.549 Y66.784 E3.01354
G1 X136.329 Y67.418 E3.05115
G1 X136.638 Y67.711 E3.06709
G1 X137.92 Y69.248 E3.14198
G1 X138.414 Y70.024 E3.1764
G1 X138.964 Y71.119 E3.22225
G1 X139.37 Y72.205 E3.26563
G1 X139.689 Y73.458 E3.31401
G1 X139.785 Y74.071 E3.33723
G1 X139.875 Y75.449 E3.3889
G1 X139.858 Y125.052 E5.24493
G1 X139.817 Y125.572 E5.26444
G1 X139.563 Y126.999 E5.31868
G1 X139.189 Y128.232 E5.36689
G1 X138.615 Y129.525 E5.41982
G1 X138.062 Y130.474 E5.46092
G1 X137.67 Y131.029 E5.48635
G1 X136.688 Y132.159 E5.54236
G1 X136.268 Y132.557 E5.56401
G1 X134.766 Y133.678 E5.63414
G1 X133.837 Y134.198 E5.67398
G1 X132.774 Y134.657 E5.7173
G1 X131.743 Y134.979 E5.75772
G1 X130.13 Y135.28 E5.81911
G1 X129.352 Y135.331 E5.84829
G1 X128.645 Y135.329 E5.87474
G1 X126.611 Y135.071 E5.95146
G1 X125.734 Y134.834 E5.98545
G1 X124.8 Y134.492 E6.02267
G1 X123.517 Y133.857 E6.07623
G1 X122.949 Y133.495 E6.10144
G1 X121.629 Y132.462 E6.16415
G1 X121.057 Y131.89 E6.19442
G1 X120.414 Y131.13 E6.23167
G1 X119.577 Y129.872 E6.28821
G1 X118.966 Y128.643 E6.33957
G1 X118.631 Y127.729 E6.37599
G1 X118.355 Y126.664 E6.41716
G1 X118.329 Y126.512 E6.42293
G1 X117.66 Y124.867 E6.48938
G1 X112.959 Y124.867 E6.66528
G1 X103.888 Y128.824 E7.03558
G1 X102.381 Y129.229 E7.09397
G1 X101.927 Y129.294 E7.11113
G1 X80.722 Y129.336 E7.90457
G1 X80.344 Y130.095 E7.9363
G1 X79.76 Y130.976 E7.97585
G1 X79.032 Y131.868 E8.01893
G1 X78.4 Y132.507 E8.05256
G1 X77.583 Y133.187 E8.09233
G1 X76.307 Y134.024 E8.14943
G1 X75.343 Y134.501 E8.18968
G1 X74.137 Y134.944 E8.23775
G1 X73.048 Y135.217 E8.27976
G1 X72.332 Y135.324 E8.30685
G1 X70.587 Y135.399 E8.3722
G1 X69.862 Y135.351 E8.39939
G1 X68.127 Y135.026 E8.46544
G1 X67.508 Y134.83 E8.48973
G1 X65.901 Y134.141 E8.55516
G1 X65.12 Y133.684 E8.58902
G1 X64.475 Y133.236 E8.6184
G1 X63.126 Y132.038 E8.68591
G1 X62.655 Y131.51 E8.71238
G1 X61.755 Y130.261 E8.76999
G1 X61.256 Y129.367 E8.8083
G1 X60.878 Y128.511 E8.84331
G1 X60.426 Y127.073 E8.89971
G1 X60.262 Y126.238 E8.93155
G1 X60.125 Y124.701 E8.98929
G1 X60.143 Y74.853 E10.85449
G1 X60.187 Y74.307 E10.87498
G1 X60.511 Y72.587 E10.94047
G1 X60.659 Y72.099 E10.95956
G1 X61.267 Y70.629 E11.01908
G1 X61.84 Y69.612 E11.06276
G1 X62.528 Y68.658 E11.10677
G1 X63.466 Y67.626 E11.15895
G0 F7200 X63.765 Y67.963
G1 F1200 X64.435 Y67.369 E11.19245
G1 X65.469 Y66.626 E11.2401
G1 X66.335 Y66.141 E11.27724
G1 X67.323 Y65.711 E11.31755
G1 X68.638 Y65.307 E11.36903
G1 X69.304 Y65.177 E11.39442
G1 X70.819 Y65.038 E11.45134
G1 X101.774 Y65.085 E12.60961
G1 X103.096 Y65.312 E12.6598
G1 X103.405 Y65.408 E12.67191
G1 X104.67 Y65.948 E12.72337
G1 X105.347 Y66.352 E12.75287
G1 X105.998 Y66.836 E12.78322
G1 X114.081 Y73.806 E13.18259
G1 X118.479 Y73.806 E13.34715
G1 X118.866 Y73.072 E13.3782
G1 X118.896 Y72.924 E13.38385
G1 X119.282 Y71.692 E13.43216
G1 X119.574 Y71.019 E13.45961
G1 X120.228 Y69.848 E13.50979
G1 X121.024 Y68.751 E13.56051
G1 X121.679 Y68.038 E13.59674
G1 X122.301 Y67.474 E13.62815
G1 X123.172 Y66.822 E13.66886
G1 X124.251 Y66.186 E13.71573
G1 X125.394 Y65.685 E13.76243
G1 X126.376 Y65.38 E13.8009
G1 X127.825 Y65.107 E13.85607
G1 X128.957 Y65.039 E13.89851
G1 X129.98 Y65.084 E13.93682
G1 X130.947 Y65.22 E13.97336
G1 X132.028 Y65.491 E14.01506
G1 X132.994 Y65.837 E14.05345
G1 X134.134 Y66.399 E14.10101
G1 X135.265 Y67.133 E14.15146
G1 X136.019 Y67.745 E14.1878
G1 X136.328 Y68.038 E14.20373
G1 X137.54 Y69.49 E14.2745
G1 X138.034 Y70.266 E14.30892
G1 X138.542 Y71.277 E14.35126
G1 X138.948 Y72.363 E14.39464
G1 X139.244 Y73.528 E14.43962
G1 X139.34 Y74.141 E14.46284
G1 X139.425 Y75.449 E14.51188
G1 X139.409 Y125.017 E16.3666
G1 X139.368 Y125.537 E16.38612
G1 X139.132 Y126.868 E16.4367
G1 X138.758 Y128.101 E16.48491
G1 X138.226 Y129.299 E16.53396
G1 X137.694 Y130.214 E16.57356
G1 X137.302 Y130.769 E16.59898
G1 X136.378 Y131.832 E16.65169
G1 X135.958 Y132.23 E16.67334
G1 X134.545 Y133.286 E16.73934
G1 X133.658 Y133.785 E16.77742
G1 X132.64 Y134.227 E16.81895
G1 X131.609 Y134.549 E16.85936
G1 X130.1 Y134.831 E16.9168
G1 X129.353 Y134.881 E16.94482
G1 X128.646 Y134.879 E16.97127
G1 X126.728 Y134.636 E17.04361
G1 X125.889 Y134.411 E17.07612
G1 X124.955 Y134.069 E17.11333
G1 X123.758 Y133.477 E17.1633
G1 X123.226 Y133.14 E17.18686
G1 X121.947 Y132.143 E17.24754
G1 X121.401 Y131.599 E17.27638
G1 X120.758 Y130.839 E17.31363
G1 X119.98 Y129.671 E17.36614
G1 X119.389 Y128.488 E17.41563
G1 X119.054 Y127.574 E17.45205
G1 X118.799 Y126.588 E17.49016
G1 X118.765 Y126.39 E17.49768
G1 X117.963 Y124.417 E17.57737
G1 X112.866 Y124.417 E17.76808
G1 X103.771 Y128.389 E18.13944
G1 X102.264 Y128.794 E18.19783
G1 X101.866 Y128.848 E18.21285
G1 X80.443 Y128.886 E19.01445
G1 X79.968 Y129.847 E19.05456
G1 X79.411 Y130.691 E19.0924
G1 X78.683 Y131.583 E19.13548
G1 X78.112 Y132.161 E19.16589
G1 X77.295 Y132.841 E19.20566
G1 X76.106 Y133.621 E19.25887
G1 X75.187 Y134.079 E19.29729
G1 X74.027 Y134.508 E19.34357
G1 X72.98 Y134.772 E19.38397
G1 X72.313 Y134.874 E19.40922
G1 X70.568 Y134.949 E19.47457
G1 X69.893 Y134.902 E19.49989
G1 X68.261 Y134.596 E19.56202
G1 X67.685 Y134.416 E19.5846
G1 X66.128 Y133.752 E19.64793
G1 X65.377 Y133.314 E19.68046
G1 X64.732 Y132.866 E19.70985
G1 X63.462 Y131.738 E19.77341
G1 X62.991 Y131.21 E19.79988
G1 X62.148 Y130.041 E19.85381
G1 X61.668 Y129.185 E19.89053
G1 X61.29 Y128.329 E19.92555
G1 X60.868 Y126.986 E19.97822
G1 X60.704 Y126.151 E20.01006
G1 X60.575 Y124.701 E20.06453
G1 X60.592 Y74.889 E21.92838
G1 X60.636 Y74.343 E21.94887
G1 X60.942 Y72.718 E22.01075
G1 X61.09 Y72.23 E22.02983
G1 X61.66 Y70.849 E22.08573
G1 X62.206 Y69.874 E22.12754
G1 X62.862 Y68.96 E22.16964
G1 X63.765 Y67.963 E22.21997
G0 F7200 X64.064 Y68.3
G1 F1200 X64.734 Y67.706 E22.25348
G1 X65.69 Y67.018 E22.29755
G1 X66.515 Y66.554 E22.33296
G1 X67.503 Y66.124 E22.37328
G1 X68.724 Y65.749 E22.42108
G1 X69.39 Y65.619 E22.44647
G1 X70.818 Y65.488 E22.50012
G1 X101.773 Y65.535 E23.65839
G1 X102.962 Y65.742 E23.70355
G1 X103.271 Y65.838 E23.71565
G1 X104.44 Y66.335 E23.76318
G1 X105.079 Y66.714 E23.79098
G1 X105.704 Y67.177 E23.82009
G1 X113.913 Y74.256 E24.22568
G1 X118.75 Y74.256 E24.40667
G1 X119.294 Y73.225 E24.45029
G1 X119.337 Y73.014 E24.45835
G1 X119.695 Y71.87 E24.5032
G1 X119.967 Y71.238 E24.52895
G1 X120.621 Y70.067 E24.57913
G1 X121.356 Y69.055 E24.62593
G1 X121.982 Y68.371 E24.66063
G1 X122.572 Y67.834 E24.69048
G1 X123.401 Y67.21 E24.7293
G1 X124.48 Y66.574 E24.77617
G1 X125.529 Y66.114 E24.81903
G1 X126.46 Y65.822 E24.85554
G1 X127.853 Y65.556 E24.9086
G1 X128.937 Y65.489 E24.94924
G1 X129.96 Y65.534 E24.98756
G1 X130.838 Y65.657 E25.02073
G1 X131.876 Y65.915 E25.06075
G1 X132.842 Y66.261 E25.09914
G1 X133.934 Y66.802 E25.14474
G1 X134.982 Y67.483 E25.19151
G1 X135.709 Y68.072 E25.22652
G1 X136.018 Y68.365 E25.24245
G1 X137.16 Y69.732 E25.3091
G1 X137.654 Y70.508 E25.34352
G1 X138.12 Y71.435 E25.38235
G1 X138.526 Y72.521 E25.42573
G1 X138.799 Y73.598 E25.4673
G1 X138.895 Y74.211 E25.49052
G1 X138.975 Y75.449 E25.53694
G1 X138.96 Y124.982 E27.39035
G1 X138.919 Y125.502 E27.40986
G1 X138.701 Y126.737 E27.45679
G1 X138.327 Y127.97 E27.505
G1 X137.837 Y129.073 E27.55016
G1 X137.326 Y129.954 E27.58827
G1 X136.934 Y130.509 E27.6137
G1 X136.068 Y131.505 E27.66308
G1 X135.648 Y131.903 E27.68473
G1 X134.276 Y132.925 E27.74875
G1 X133.478 Y133.373 E27.78299
G1 X132.506 Y133.797 E27.82267
G1 X131.475 Y134.119 E27.86308
G1 X130.069 Y134.382 E27.91661
G1 X129.354 Y134.431 E27.94342
G1 X128.647 Y134.429 E27.96988
G1 X126.844 Y134.201 E28.03788
G1 X126.044 Y133.988 E28.06885
G1 X125.11 Y133.646 E28.10607
G1 X123.997 Y133.096 E28.15253
G1 X123.502 Y132.785 E28.1744
G1 X122.264 Y131.824 E28.23304
G1 X121.745 Y131.308 E28.26043
G1 X121.102 Y130.548 E28.29767
G1 X120.382 Y129.469 E28.34621
G1 X119.812 Y128.333 E28.39377
G1 X119.477 Y127.419 E28.43019
G1 X119.243 Y126.512 E28.46524
G1 X119.201 Y126.266 E28.47458
G1 X118.266 Y123.967 E28.56745
G1 X112.773 Y123.967 E28.77298
G1 X103.654 Y127.954 E29.14538
G1 X102.147 Y128.359 E29.20377
G1 X101.81 Y128.401 E29.21648
G1 X80.162 Y128.436 E30.0265
G1 X79.592 Y129.6 E30.07499
G1 X79.062 Y130.406 E30.11109
G1 X78.334 Y131.298 E30.15417
G1 X77.824 Y131.815 E30.18134
G1 X77.007 Y132.495 E30.22111
G1 X75.904 Y133.219 E30.27048
G1 X75.03 Y133.657 E30.30706
G1 X73.916 Y134.072 E30.35154
G1 X72.91 Y134.327 E30.39038
G1 X72.294 Y134.424 E30.41371
G1 X70.549 Y134.499 E30.47906
G1 X69.926 Y134.453 E30.50244
G1 X68.395 Y134.166 E30.56072
G1 X67.819 Y133.986 E30.5833
G1 X66.354 Y133.363 E30.64287
G1 X65.634 Y132.944 E30.67404
G1 X64.989 Y132.496 E30.70343
G1 X63.798 Y131.438 E30.76304
G1 X63.327 Y130.91 E30.78951
G1 X62.54 Y129.82 E30.83981
G1 X62.08 Y129.003 E30.8749
G1 X61.702 Y128.147 E30.90991
G1 X61.31 Y126.899 E30.95886
G1 X61.146 Y126.064 E30.9907
G1 X61.025 Y124.701 E31.0419
G1 X61.041 Y74.925 E32.9044
G1 X61.085 Y74.379 E32.9249
G1 X61.373 Y72.849 E32.98315
G1 X61.521 Y72.361 E33.00223
G1 X62.053 Y71.069 E33.05451
G1 X62.599 Y70.094 E33.09633
G1 X63.227 Y69.223 E33.13651
G1 X64.064 Y68.3 E33.18313
G0 F7200 X64.363 Y68.637
G1 F1200 X65.033 Y68.043 E33.21663
G1 X65.912 Y67.41 E33.25716
G1 X66.695 Y66.967 E33.29082
G1 X67.683 Y66.537 E33.33114
G1 X68.81 Y66.191 E33.37525
G1 X69.476 Y66.061 E33.40065
G1 X70.817 Y65.938 E33.45103
G1 X101.697 Y65.979 E34.60649
G1 X102.828 Y66.172 E34.64942
G1 X103.137 Y66.268 E34.66153
G1 X104.212 Y66.723 E34.70521
G1 X104.812 Y67.076 E34.73126
G1 X105.41 Y67.518 E34.75908
G1 X113.745 Y74.706 E35.17091
G1 X119.021 Y74.706 E35.36833
G1 X119.722 Y73.378 E35.42452
G1 X119.778 Y73.104 E35.43498
G1 X120.109 Y72.046 E35.47646
G1 X120.36 Y71.457 E35.50042
G1 X120.986 Y70.331 E35.54862
G1 X121.689 Y69.358 E35.59354
G1 X122.286 Y68.703 E35.6267
G1 X122.843 Y68.194 E35.65493
G1 X123.672 Y67.57 E35.69376
G1 X124.708 Y66.962 E35.7387
G1 X125.665 Y66.543 E35.7778
G1 X126.546 Y66.264 E35.81237
G1 X127.882 Y66.005 E35.86329
G1 X128.917 Y65.939 E35.9021
G1 X129.94 Y65.984 E35.94042
G1 X130.73 Y66.094 E35.97026
G1 X131.724 Y66.339 E36.00857
G1 X132.69 Y66.685 E36.04696
G1 X133.69 Y67.18 E36.08871
G1 X134.699 Y67.833 E36.13368
G1 X135.399 Y68.399 E36.16737
G1 X135.708 Y68.692 E36.1833
G1 X136.781 Y69.975 E36.24588
G1 X137.252 Y70.711 E36.27858
G1 X137.698 Y71.593 E36.31556
G1 X138.104 Y72.679 E36.35894
G1 X138.354 Y73.668 E36.39711
G1 X138.45 Y74.281 E36.42033
G1 X138.525 Y75.449 E36.46412
G1 X138.511 Y124.947 E38.31622
G1 X138.47 Y125.467 E38.33574
G1 X138.27 Y126.606 E38.37901
G1 X137.896 Y127.839 E38.42722
G1 X137.447 Y128.848 E38.46855
G1 X136.958 Y129.694 E38.50511
G1 X136.566 Y130.249 E38.53053
G1 X135.758 Y131.178 E38.5766
G1 X135.338 Y131.576 E38.59825
G1 X134.055 Y132.533 E38.65814
G1 X133.297 Y132.961 E38.69072
G1 X132.372 Y133.367 E38.72851
G1 X131.341 Y133.689 E38.76893
G1 X130.037 Y133.933 E38.81857
G1 X129.355 Y133.981 E38.84415
G1 X128.648 Y133.979 E38.87061
G1 X126.959 Y133.766 E38.9343
G1 X126.199 Y133.565 E38.96372
G1 X125.265 Y133.223 E39.00094
G1 X124.235 Y132.714 E39.04393
G1 X123.777 Y132.429 E39.06411
G1 X122.581 Y131.504 E39.12068
G1 X122.089 Y131.017 E39.14659
G1 X121.446 Y130.257 E39.18384
G1 X120.784 Y129.266 E39.22843
G1 X120.235 Y128.178 E39.27403
G1 X119.9 Y127.264 E39.31046
G1 X119.687 Y126.436 E39.34245
G1 X119.637 Y126.144 E39.35353
G1 X118.569 Y123.517 E39.45964
G1 X112.68 Y123.517 E39.67999
G1 X103.536 Y127.52 E40.05349
G1 X102.091 Y127.912 E40.10951
G1 X101.754 Y127.954 E40.12222
G1 X79.88 Y127.986 E40.94069
G1 X79.215 Y129.354 E40.99761
G1 X78.713 Y130.121 E41.03191
G1 X77.985 Y131.013 E41.07499
G1 X77.504 Y131.498 E41.10055
G1 X76.76 Y132.119 E41.13681
G1 X75.657 Y132.843 E41.18618
G1 X74.872 Y133.236 E41.21903
G1 X73.805 Y133.636 E41.26166
G1 X72.799 Y133.891 E41.3005
G1 X72.275 Y133.974 E41.32035
G1 X70.53 Y134.049 E41.3857
G1 X69.961 Y134.004 E41.40706
G1 X68.529 Y133.736 E41.46157
G1 X67.953 Y133.556 E41.48415
G1 X66.58 Y132.974 E41.53995
G1 X65.891 Y132.574 E41.56976
G1 X65.246 Y132.126 E41.59915
G1 X64.134 Y131.138 E41.65481
G1 X63.663 Y130.61 E41.68128
G1 X62.905 Y129.557 E41.72983
G1 X62.492 Y128.821 E41.76141
G1 X62.114 Y127.965 E41.79642
G1 X61.752 Y126.812 E41.84164
G1 X61.588 Y125.977 E41.87348
G1 X61.475 Y124.701 E41.92141
G1 X61.49 Y74.961 E43.78257
G1 X61.534 Y74.415 E43.80306
G1 X61.804 Y72.98 E43.8577
G1 X61.952 Y72.492 E43.87678
G1 X62.446 Y71.289 E43.92544
G1 X62.992 Y70.314 E43.96725
G1 X63.561 Y69.525 E44.00365
G1 X64.363 Y68.637 E44.04843
G0 F7200 X64.662 Y68.974
G1 F1200 X65.332 Y68.38 E44.08193
G1 X66.135 Y67.801 E44.11897
G1 X66.876 Y67.379 E44.15088
G1 X67.816 Y66.967 E44.18928
G1 X68.896 Y66.633 E44.23158
G1 X69.562 Y66.503 E44.25697
G1 X70.816 Y66.388 E44.30409
G1 X101.696 Y66.429 E45.45955
G1 X102.694 Y66.602 E45.49745
G1 X103.003 Y66.698 E45.50956
G1 X104.036 Y67.137 E45.55155
G1 X104.545 Y67.438 E45.57368
G1 X105.116 Y67.859 E45.60022
G1 X113.577 Y75.156 E46.01829
G1 X119.293 Y75.156 E46.23217
G1 X120.15 Y73.53 E46.30094
G1 X120.219 Y73.195 E46.31374
G1 X120.524 Y72.221 E46.35193
G1 X120.754 Y71.675 E46.3741
G1 X121.351 Y70.595 E46.42027
G1 X122.054 Y69.622 E46.46519
G1 X122.59 Y69.035 E46.49493
G1 X123.114 Y68.554 E46.52155
G1 X123.943 Y67.93 E46.56037
G1 X124.935 Y67.351 E46.60335
G1 X125.802 Y66.972 E46.63876
G1 X126.633 Y66.706 E46.67141
G1 X127.912 Y66.454 E46.72018
G1 X128.897 Y66.389 E46.75712
G1 X129.92 Y66.434 E46.79543
G1 X130.667 Y66.54 E46.82367
G1 X131.572 Y66.763 E46.85854
G1 X132.538 Y67.109 E46.89694
G1 X133.446 Y67.558 E46.93484
G1 X134.416 Y68.183 E46.97801
G1 X135.089 Y68.726 E47.01037
G1 X135.398 Y69.019 E47.0263
G1 X136.403 Y70.219 E47.08487
G1 X136.851 Y70.915 E47.11584
G1 X137.276 Y71.751 E47.15094
G1 X137.682 Y72.837 E47.19432
