;FLAVOR:Marlin
;TIME:8770
;Filament used: 5.04489m
;Layer height: 0.16
;MINX:63.131
;MINY:21.617
;MINZ:0.2
;MAXX:136.869
;MAXY:178.377
;MAXZ:8.68
;Generated with Cura_SteamEngine 5.4.0
M82 ;absolute extrusion mode
M140 S80 ; set bed temp  ; set bed temperature and continue 
M104 S230   ; set hot end temperature and continue
M106 S190; fan on for correct PID
G4  P3000 ; wait 3 sec
;G1 X20 Y20 F3000 ; go to parking pos.
M109 S230   ; wait for hot end temperature to reach e.g. 210 °C
G1 E-5 F300
M106 S0; fan off
G28 ; Home all axes
G1 Z10 F300 ; Z raise
;BED_MESH_CALIBRATE PROFILE=mesh1 METHOD=automatic
G4  P1000 ; wait a second
; prime nozzle


G1 X30 Y190 F7200 ; move to start
G1 Z0.3 F800 ; Move to layer height
G92 E0.0 
G1 X170 Y190 E20 F800 ; print prime line
G1 X170 Y189 F7200 ; move to start
G1 X30 Y189 E40 F800 ; print prime line
G92 E0
G92 E0
G1 F1800 E-0.75
;LAYER_COUNT:54
;LAYER:0
M107 P1
G0 F7200 X63.795 Y26.376 Z0.2
;TYPE:SKIRT
G1 F720 E0
G1 F900 X64.525 Y25.053 E0.05654
G1 X65.069 Y24.352 E0.08974
G1 X65.962 Y23.468 E0.13676
G1 X66.771 Y22.87 E0.1744
G1 X67.501 Y22.462 E0.20569
G1 X68.623 Y22.008 E0.25098
G1 X69.625 Y21.751 E0.28969
G1 X70.209 Y21.668 E0.31176
G1 X107.788 Y21.617 E1.71788
G1 X109.371 Y21.796 E1.77749
G1 X110.065 Y21.972 E1.80428
G1 X110.958 Y22.311 E1.84002
G1 X112.111 Y22.941 E1.88918
G1 X112.981 Y23.606 E1.93016
G1 X113.863 Y24.509 E1.97739
G1 X114.305 Y25.107 E2.00521
G1 X129.677 Y25.151 E2.5804
G1 X130.701 Y25.31 E2.61917
G1 X131.387 Y25.492 E2.64573
G1 X132.176 Y25.799 E2.67741
G1 X133.437 Y26.497 E2.73134
G1 X133.998 Y26.919 E2.7576
G1 X135.103 Y28.025 E2.8161
G1 X135.461 Y28.497 E2.83827
G1 X136.052 Y29.504 E2.88196
G1 X136.298 Y30.06 E2.90471
G1 X136.786 Y31.851 E2.97417
G1 X136.836 Y32.265 E2.98977
G1 X136.86 Y40.798 E3.30906
G1 X136.694 Y42.122 E3.35899
G1 X136.503 Y42.85 E3.38715
G1 X136.179 Y43.693 E3.42094
G1 X135.478 Y44.956 E3.47499
G1 X134.935 Y45.659 E3.50823
G1 X134.093 Y46.503 E3.55284
G1 X133.391 Y47.043 E3.58598
G1 X132.473 Y47.575 E3.62568
G1 X131.917 Y47.821 E3.64843
G1 X130.097 Y48.312 E3.71896
G1 X129.535 Y48.371 E3.74011
G1 X128.075 Y48.38 E3.79474
G1 X128.075 Y84.47 E5.14514
G1 X129.756 Y84.495 E5.20805
G1 X130.619 Y84.63 E5.24073
G1 X131.43 Y84.844 E5.27211
G1 X132.063 Y85.085 E5.29746
G1 X133.437 Y85.836 E5.35605
G1 X133.998 Y86.258 E5.38232
G1 X135.103 Y87.364 E5.44081
G1 X135.461 Y87.836 E5.46298
G1 X136.052 Y88.843 E5.50667
G1 X136.298 Y89.399 E5.52942
G1 X136.786 Y91.19 E5.59888
G1 X136.839 Y91.656 E5.61643
G1 X136.86 Y98.869 E5.88632
G1 X136.694 Y100.194 E5.93629
G1 X136.503 Y100.922 E5.96445
G1 X136.179 Y101.765 E5.99824
G1 X135.478 Y103.028 E6.05229
G1 X134.935 Y103.731 E6.08553
G1 X134.093 Y104.575 E6.13014
G1 X133.391 Y105.115 E6.16328
G1 X132.473 Y105.647 E6.20298
G1 X131.917 Y105.893 E6.22573
G1 X130.123 Y106.381 E6.29529
G1 X129.608 Y106.437 E6.31468
G1 X123.875 Y106.458 E6.5292
G1 X123.875 Y136.591 E7.6567
G1 X129.678 Y136.628 E7.87384
G1 X130.701 Y136.787 E7.91258
G1 X131.387 Y136.969 E7.93913
G1 X132.176 Y137.276 E7.97081
G1 X133.442 Y137.979 E8.025
G1 X134.143 Y138.523 E8.0582
G1 X135.027 Y139.416 E8.10522
G1 X135.625 Y140.225 E8.14286
G1 X136.033 Y140.955 E8.17415
G1 X136.487 Y142.077 E8.21944
G1 X136.744 Y143.079 E8.25815
G1 X136.827 Y143.663 E8.28022
G1 X136.869 Y170.617 E9.28877
G1 X136.661 Y172.256 E9.35059
G1 X136.5 Y172.852 E9.37369
G1 X136.205 Y173.627 E9.40472
G1 X135.475 Y174.95 E9.46126
G1 X134.931 Y175.651 E9.49446
G1 X134.038 Y176.535 E9.54148
G1 X133.229 Y177.133 E9.57912
G1 X132.499 Y177.541 E9.61041
G1 X131.377 Y177.995 E9.6557
G1 X130.375 Y178.252 E9.69441
G1 X129.791 Y178.335 E9.71648
G1 X70.891 Y178.377 E11.92038
G1 X69.255 Y178.169 E11.98209
G1 X68.659 Y178.008 E12.00519
G1 X67.884 Y177.713 E12.03622
G1 X66.561 Y176.983 E12.09276
G1 X65.86 Y176.439 E12.12596
G1 X64.976 Y175.546 E12.17298
G1 X64.378 Y174.737 E12.21062
G1 X63.97 Y174.007 E12.24191
G1 X63.516 Y172.885 E12.2872
G1 X63.259 Y171.883 E12.32591
G1 X63.176 Y171.299 E12.34798
G1 X63.131 Y29.383 E17.65814
G1 X63.339 Y27.747 E17.71985
G1 X63.5 Y27.151 E17.74295
G1 X63.795 Y26.376 E17.77398
G0 F7200 X64.216 Y26.536
G1 F900 X64.882 Y25.327 E17.82563
G1 X65.386 Y24.672 E17.85655
G1 X66.279 Y23.788 E17.90357
G1 X66.991 Y23.263 E17.93667
G1 X67.721 Y22.855 E17.96796
G1 X68.736 Y22.444 E18.00893
G1 X69.688 Y22.197 E18.04574
G1 X70.272 Y22.114 E18.06781
G1 X107.789 Y22.067 E19.47161
G1 X109.262 Y22.233 E19.52707
G1 X109.905 Y22.393 E19.55186
G1 X110.798 Y22.732 E19.58761
G1 X111.839 Y23.3 E19.63198
G1 X112.66 Y23.922 E19.67052
G1 X113.501 Y24.777 E19.71539
G1 X114.021 Y25.48 E19.74811
G1 X114.067 Y25.556 E19.75144
G1 X129.608 Y25.596 E20.33295
G1 X130.632 Y25.755 E20.37172
G1 X131.226 Y25.912 E20.39471
G1 X131.959 Y26.193 E20.42408
G1 X133.166 Y26.857 E20.47563
G1 X133.727 Y27.279 E20.5019
G1 X134.744 Y28.297 E20.55574
G1 X135.102 Y28.769 E20.57791
G1 X135.64 Y29.686 E20.61769
G1 X135.886 Y30.242 E20.64044
G1 X136.339 Y31.905 E20.70493
G1 X136.389 Y32.319 E20.72053
G1 X136.413 Y40.742 E21.0357
G1 X136.247 Y42.066 E21.08563
G1 X136.083 Y42.689 E21.10974
G1 X135.759 Y43.532 E21.14353
G1 X135.121 Y44.682 E21.19274
G1 X134.616 Y45.341 E21.2238
G1 X133.774 Y46.185 E21.26841
G1 X133.164 Y46.654 E21.2972
G1 X132.291 Y47.163 E21.33502
G1 X131.735 Y47.409 E21.35777
G1 X130.05 Y47.864 E21.42307
G1 X129.488 Y47.923 E21.44422
G1 X127.625 Y47.932 E21.51393
G1 X127.625 Y84.914 E22.89771
G1 X129.686 Y84.94 E22.97483
G1 X130.549 Y85.075 E23.00752
G1 X131.27 Y85.265 E23.03541
G1 X131.903 Y85.506 E23.06076
G1 X133.166 Y86.196 E23.11461
G1 X133.727 Y86.618 E23.14088
G1 X134.744 Y87.636 E23.19472
G1 X135.102 Y88.108 E23.21689
G1 X135.64 Y89.025 E23.25667
G1 X135.886 Y89.581 E23.27942
G1 X136.339 Y91.244 E23.34391
G1 X136.389 Y91.658 E23.35951
G1 X136.413 Y98.813 E23.62724
G1 X136.247 Y100.138 E23.6772
G1 X136.083 Y100.761 E23.70131
G1 X135.759 Y101.604 E23.7351
G1 X135.121 Y102.754 E23.78431
G1 X134.616 Y103.413 E23.81538
G1 X133.774 Y104.257 E23.85998
G1 X133.164 Y104.726 E23.88878
G1 X132.291 Y105.235 E23.92659
G1 X131.735 Y105.481 E23.94934
G1 X130.072 Y105.934 E24.01383
G1 X129.606 Y105.987 E24.03138
G1 X123.425 Y106.01 E24.26266
G1 X123.425 Y137.039 E25.42369
G1 X129.609 Y137.073 E25.65509
G1 X130.632 Y137.232 E25.69382
G1 X131.226 Y137.389 E25.71681
G1 X131.959 Y137.67 E25.74619
G1 X133.168 Y138.336 E25.79783
G1 X133.823 Y138.84 E25.82876
G1 X134.707 Y139.733 E25.87578
G1 X135.232 Y140.445 E25.90888
G1 X135.64 Y141.175 E25.94017
G1 X136.051 Y142.19 E25.98114
G1 X136.298 Y143.142 E26.01794
G1 X136.381 Y143.726 E26.04002
G1 X136.419 Y170.618 E27.04625
G1 X136.226 Y172.14 E27.10366
G1 X136.079 Y172.692 E27.12503
G1 X135.784 Y173.467 E27.15606
G1 X135.118 Y174.676 E27.20771
G1 X134.614 Y175.331 E27.23863
G1 X133.721 Y176.215 E27.28565
G1 X133.009 Y176.74 E27.31875
G1 X132.279 Y177.148 E27.35004
G1 X131.264 Y177.559 E27.39102
G1 X130.312 Y177.806 E27.42782
G1 X129.728 Y177.889 E27.44989
G1 X70.891 Y177.927 E29.65143
G1 X69.371 Y177.734 E29.70876
G1 X68.819 Y177.587 E29.73014
G1 X68.044 Y177.292 E29.76117
G1 X66.835 Y176.626 E29.81281
G1 X66.18 Y176.122 E29.84374
G1 X65.296 Y175.229 E29.89075
G1 X64.771 Y174.517 E29.92386
G1 X64.363 Y173.787 E29.95515
G1 X63.952 Y172.772 E29.99612
G1 X63.705 Y171.82 E30.03292
G1 X63.622 Y171.236 E30.05499
G1 X63.581 Y29.383 E35.3628
G1 X63.774 Y27.863 E35.42013
G1 X63.921 Y27.311 E35.44151
G1 X64.216 Y26.536 E35.47253
G0 F7200 X64.611 Y26.752
G1 F900 X65.24 Y25.6 E35.52165
G1 X65.704 Y24.991 E35.55029
G1 X66.548 Y24.149 E35.5949
G1 X67.211 Y23.656 E35.62582
G1 X67.941 Y23.248 E35.65711
G1 X68.85 Y22.879 E35.69382
G1 X69.751 Y22.643 E35.72867
G1 X70.335 Y22.56 E35.75074
G1 X107.79 Y22.517 E37.15222
G1 X109.153 Y22.67 E37.20354
G1 X109.796 Y22.83 E37.22833
G1 X110.582 Y23.127 E37.25977
G1 X111.623 Y23.695 E37.30415
G1 X112.34 Y24.239 E37.33782
G1 X113.139 Y25.045 E37.38029
G1 X113.659 Y25.748 E37.41301
G1 X113.805 Y26.005 E37.42407
G1 X129.539 Y26.041 E38.0128
G1 X130.563 Y26.2 E38.05157
G1 X131.067 Y26.333 E38.07108
G1 X131.743 Y26.588 E38.09811
G1 X132.895 Y27.217 E38.14722
G1 X133.456 Y27.639 E38.17349
G1 X134.385 Y28.569 E38.22268
G1 X134.743 Y29.041 E38.24484
G1 X135.228 Y29.868 E38.28072
G1 X135.474 Y30.424 E38.30346
G1 X135.892 Y31.959 E38.36299
G1 X135.942 Y32.373 E38.3786
G1 X135.963 Y40.743 E38.69178
G1 X135.811 Y41.953 E38.73741
G1 X135.662 Y42.53 E38.75971
G1 X135.365 Y43.315 E38.79112
G1 X134.762 Y44.41 E38.83789
G1 X134.297 Y45.023 E38.86668
G1 X133.455 Y45.867 E38.91129
G1 X132.936 Y46.266 E38.93578
G1 X132.109 Y46.751 E38.97166
G1 X131.553 Y46.997 E38.99441
G1 X130.003 Y47.416 E39.05449
G1 X129.441 Y47.475 E39.07563
G1 X127.175 Y47.484 E39.16042
G1 X127.175 Y85.359 E40.57761
G1 X129.616 Y85.385 E40.66895
G1 X130.479 Y85.52 E40.70164
G1 X131.11 Y85.686 E40.72605
G1 X131.743 Y85.927 E40.7514
G1 X132.895 Y86.556 E40.80051
G1 X133.456 Y86.978 E40.82678
G1 X134.385 Y87.908 E40.87596
G1 X134.743 Y88.38 E40.89813
G1 X135.228 Y89.207 E40.934
G1 X135.474 Y89.763 E40.95675
G1 X135.892 Y91.298 E41.01628
G1 X135.942 Y91.712 E41.03188
G1 X135.963 Y98.814 E41.29762
G1 X135.811 Y100.025 E41.34329
G1 X135.662 Y100.602 E41.36559
G1 X135.365 Y101.387 E41.397
G1 X134.762 Y102.482 E41.44377
G1 X134.297 Y103.095 E41.47256
G1 X133.455 Y103.939 E41.51717
G1 X132.936 Y104.338 E41.54166
G1 X132.109 Y104.823 E41.57754
G1 X131.553 Y105.069 E41.60029
G1 X130.018 Y105.487 E41.65981
G1 X129.604 Y105.537 E41.67542
G1 X122.975 Y105.562 E41.92346
G1 X122.975 Y137.487 E43.11802
G1 X129.54 Y137.518 E43.36367
G1 X130.563 Y137.677 E43.40241
G1 X131.067 Y137.81 E43.42191
G1 X131.743 Y138.065 E43.44894
G1 X132.895 Y138.694 E43.49806
G1 X133.504 Y139.158 E43.5267
G1 X134.346 Y140.002 E43.57131
G1 X134.839 Y140.665 E43.60223
G1 X135.247 Y141.395 E43.63352
G1 X135.616 Y142.304 E43.67023
G1 X135.852 Y143.205 E43.70508
G1 X135.935 Y143.789 E43.72715
G1 X135.969 Y170.619 E44.73107
G1 X135.791 Y172.024 E44.78406
G1 X135.644 Y172.576 E44.80543
G1 X135.389 Y173.251 E44.83243
G1 X134.76 Y174.403 E44.88154
G1 X134.296 Y175.012 E44.91019
G1 X133.452 Y175.854 E44.9548
G1 X132.789 Y176.347 E44.98571
G1 X132.059 Y176.755 E45.01701
G1 X131.15 Y177.124 E45.05371
G1 X130.249 Y177.36 E45.08856
G1 X129.665 Y177.443 E45.11064
G1 X70.891 Y177.477 E47.30982
G1 X69.487 Y177.299 E47.36278
G1 X68.935 Y177.152 E47.38415
G1 X68.26 Y176.897 E47.41115
G1 X67.108 Y176.268 E47.46026
G1 X66.499 Y175.804 E47.48891
G1 X65.657 Y174.96 E47.53352
G1 X65.164 Y174.297 E47.56443
G1 X64.756 Y173.567 E47.59572
G1 X64.387 Y172.658 E47.63243
G1 X64.151 Y171.757 E47.66728
G1 X64.068 Y171.173 E47.68936
G1 X64.031 Y29.383 E52.9948
G1 X64.209 Y27.979 E53.04776
G1 X64.356 Y27.427 E53.06913
G1 X64.611 Y26.752 E53.09613
G0 F7200 X65.007 Y26.966
G1 F900 X65.6 Y25.871 E53.14273
G1 X66.022 Y25.31 E53.16899
G1 X66.866 Y24.468 E53.2136
G1 X67.432 Y24.048 E53.23998
G1 X68.11 Y23.665 E53.26911
G1 X69.019 Y23.296 E53.30582
G1 X69.814 Y23.089 E53.33656
G1 X70.398 Y23.006 E53.35863
G1 X107.79 Y22.967 E54.75775
G1 X109.102 Y23.117 E54.80716
G1 X109.639 Y23.252 E54.82788
G1 X110.366 Y23.522 E54.8569
G1 X111.407 Y24.09 E54.90127
G1 X112.02 Y24.556 E54.93009
G1 X112.819 Y25.362 E54.97255
G1 X113.268 Y25.971 E55.00086
G1 X113.543 Y26.454 E55.02166
G1 X129.538 Y26.491 E55.62016
G1 X130.448 Y26.635 E55.65463
G1 X130.952 Y26.768 E55.67413
G1 X131.529 Y26.984 E55.69719
G1 X132.624 Y27.577 E55.74378
G1 X133.185 Y27.999 E55.77005
G1 X134.026 Y28.841 E55.81458
G1 X134.384 Y29.313 E55.83675
G1 X134.816 Y30.05 E55.86871
G1 X135.062 Y30.606 E55.89146
G1 X135.445 Y32.013 E55.94602
G1 X135.495 Y32.427 E55.96163
G1 X135.513 Y40.744 E56.27283
G1 X135.375 Y41.842 E56.31424
G1 X135.24 Y42.373 E56.33474
G1 X134.97 Y43.099 E56.36372
G1 X134.402 Y44.14 E56.40809
G1 X133.978 Y44.705 E56.43453
G1 X133.136 Y45.549 E56.47913
G1 X132.664 Y45.907 E56.5013
G1 X131.927 Y46.339 E56.53327
G1 X131.371 Y46.585 E56.55602
G1 X129.956 Y46.968 E56.61087
G1 X129.394 Y47.027 E56.63201
G1 X126.725 Y47.036 E56.73188
G1 X126.725 Y85.805 E58.18252
G1 X129.546 Y85.83 E58.28808
G1 X130.409 Y85.965 E58.32077
G1 X130.952 Y86.107 E58.34177
G1 X131.529 Y86.323 E58.36482
G1 X132.624 Y86.916 E58.41142
G1 X133.185 Y87.338 E58.43768
G1 X134.026 Y88.18 E58.48221
G1 X134.384 Y88.652 E58.50438
G1 X134.816 Y89.389 E58.53635
G1 X135.062 Y89.945 E58.55909
G1 X135.445 Y91.352 E58.61366
G1 X135.495 Y91.766 E58.62926
G1 X135.513 Y98.815 E58.89302
G1 X135.375 Y99.914 E58.93446
G1 X135.24 Y100.445 E58.95496
G1 X134.97 Y101.171 E58.98395
G1 X134.402 Y102.212 E59.02832
G1 X133.978 Y102.777 E59.05475
G1 X133.136 Y103.621 E59.09936
G1 X132.664 Y103.979 E59.12153
G1 X131.927 Y104.411 E59.15349
G1 X131.371 Y104.657 E59.17624
G1 X129.964 Y105.04 E59.2308
G1 X129.55 Y105.09 E59.24641
G1 X122.525 Y105.113 E59.50927
G1 X122.525 Y137.935 E60.73739
G1 X129.538 Y137.968 E60.9998
G1 X130.448 Y138.112 E61.03428
G1 X130.952 Y138.245 E61.05378
G1 X131.529 Y138.461 E61.07683
G1 X132.624 Y139.054 E61.12343
G1 X133.185 Y139.476 E61.1497
G1 X134.027 Y140.32 E61.1943
G1 X134.447 Y140.886 E61.22068
G1 X134.83 Y141.564 E61.24981
G1 X135.199 Y142.473 E61.28652
G1 X135.406 Y143.268 E61.31726
G1 X135.489 Y143.852 E61.33933
G1 X135.519 Y170.62 E62.34093
G1 X135.356 Y171.908 E62.38951
G1 X135.209 Y172.46 E62.41088
G1 X134.993 Y173.037 E62.43393
G1 X134.4 Y174.132 E62.48053
G1 X133.978 Y174.693 E62.5068
G1 X133.134 Y175.535 E62.55141
G1 X132.568 Y175.955 E62.57778
G1 X131.89 Y176.338 E62.60691
G1 X130.981 Y176.707 E62.64362
G1 X130.186 Y176.914 E62.67436
G1 X129.602 Y176.997 E62.69643
G1 X70.891 Y177.027 E64.89326
G1 X69.603 Y176.864 E64.94184
G1 X69.051 Y176.717 E64.96321
G1 X68.474 Y176.501 E64.98627
G1 X67.379 Y175.908 E65.03286
G1 X66.818 Y175.486 E65.05913
G1 X65.976 Y174.642 E65.10374
G1 X65.556 Y174.076 E65.13011
G1 X65.173 Y173.398 E65.15925
G1 X64.804 Y172.489 E65.19596
G1 X64.597 Y171.694 E65.22669
G1 X64.514 Y171.11 E65.24877
G1 X64.481 Y29.383 E70.55186
G1 X64.644 Y28.095 E70.60044
G1 X64.791 Y27.543 E70.62181
G1 X65.007 Y26.966 E70.64486
G0 F7200 X65.404 Y27.179
G1 F900 X65.96 Y26.142 E70.68889
G1 X66.382 Y25.581 E70.71516
G1 X67.136 Y24.828 E70.75503
G1 X67.655 Y24.439 E70.7793
G1 X68.281 Y24.081 E70.80628
G1 X69.134 Y23.731 E70.84078
G1 X69.877 Y23.535 E70.86954
G1 X70.461 Y23.452 E70.89161
G1 X107.79 Y23.417 E72.28837
G1 X108.994 Y23.554 E72.33371
G1 X109.485 Y23.675 E72.35263
G1 X110.152 Y23.918 E72.3792
G1 X111.137 Y24.45 E72.42109
G1 X111.702 Y24.874 E72.44752
G1 X112.458 Y25.63 E72.48752
G1 X112.877 Y26.194 E72.51381
G1 X113.18 Y26.726 E72.53672
G1 X113.255 Y26.903 E72.54391
G1 X129.469 Y26.936 E73.1506
G1 X130.335 Y27.071 E73.1834
G1 X130.797 Y27.191 E73.20126
G1 X131.316 Y27.381 E73.22194
G1 X132.353 Y27.937 E73.26597
G1 X132.914 Y28.359 E73.29223
G1 X133.667 Y29.113 E73.33211
G1 X134.025 Y29.585 E73.35427
G1 X134.404 Y30.232 E73.38233
G1 X134.65 Y30.788 E73.40508
G1 X134.998 Y32.067 E73.45468
G1 X135.048 Y32.481 E73.47028
G1 X135.063 Y40.745 E73.7795
G1 X134.938 Y41.733 E73.81676
G1 X134.817 Y42.219 E73.8355
G1 X134.574 Y42.885 E73.86203
G1 X134.042 Y43.87 E73.90392
G1 X133.618 Y44.435 E73.93035
G1 X132.864 Y45.19 E73.97028
G1 X132.392 Y45.548 E73.99244
G1 X131.745 Y45.927 E74.0205
G1 X131.189 Y46.173 E74.04325
G1 X129.907 Y46.521 E74.09296
G1 X129.392 Y46.577 E74.11234
G1 X126.275 Y46.588 E74.22897
G1 X126.275 Y86.252 E75.7131
G1 X129.476 Y86.275 E75.83288
G1 X130.339 Y86.41 E75.86557
G1 X130.797 Y86.53 E75.88328
G1 X131.316 Y86.72 E75.90396
G1 X132.353 Y87.276 E75.94799
G1 X132.914 Y87.698 E75.97426
G1 X133.667 Y88.452 E76.01413
G1 X134.025 Y88.924 E76.0363
G1 X134.404 Y89.571 E76.06435
G1 X134.65 Y90.127 E76.0871
G1 X134.998 Y91.406 E76.1367
G1 X135.048 Y91.82 E76.1523
G1 X135.063 Y98.816 E76.41408
G1 X134.938 Y99.805 E76.45138
G1 X134.817 Y100.291 E76.47012
G1 X134.574 Y100.957 E76.49665
G1 X134.042 Y101.942 E76.53853
G1 X133.618 Y102.507 E76.56497
G1 X132.864 Y103.262 E76.60489
G1 X132.392 Y103.62 E76.62706
G1 X131.745 Y103.999 E76.65511
G1 X131.189 Y104.245 E76.67786
