;FLAVOR:Marlin
;TIME:2943
;Filament used: 4.15243m
;Layer height: 0.2
;MINX:20.97
;MINY:71.201
;MINZ:0.2
;MAXX:179.03
;MAXY:128.8
;MAXZ:6.4
;Generated with Cura_SteamEngine 5.4.0
M82 ;absolute extrusion mode
M140 S65.0 ; set bed temp  ; set bed temperature and continue 
M104 S225.0   ; set hot end temperature and continue
M106 S190; fan on for correct PID
G4  P3000 ; wait 3 sec
;G1 X20 Y20 F3000 ; go to parking pos.
M109 S225.0   ; wait for hot end temperature to reach e.g. 210 °C
G1 E-5 F300
M106 S0; fan off
G28 ; Home all axes
G1 Z10 F300 ; Z raise
;BED_MESH_CALIBRATE PROFILE=mesh1 METHOD=automatic
G4  P1000 ; wait a second
; prime nozzle

;G1 X190 Y30 F7200 ; move to start
;G1 Z0.3 F800 ; Move to layer height
;G92 E0.0 
;G1 X190 Y170 E20 F800 ; print prime line
;G1 X189 Y170 F7200 ; move to start
;G1 X189 Y30 E40 F800 ; print prime line

;G1 X190 Y30 F7200 ; move to start
;G1 Z0.3 F800 ; Move to layer height
;G92 E0.0 
;G1 X185 Y170 E20 F800 ; print prime line
;G1 X184 Y170 F7200 ; move to start
;G1 X184 Y30 E40 F800 ; print prime line

G1 X30 Y181 F7200 ; move to start
G1 Z0.3 F800 ; Move to layer height
G92 E0.0 
G1 X170 Y181 E20 F800 ; print prime line
G1 X170 Y180 F7200 ; move to start
G1 X30 Y180 E40 F800 ; print prime line
G92 E0
G92 E0
G1 F4800 E-2
;LAYER_COUNT:32
;LAYER:0
M107 P1
;MESH:radxalaptopframe.stl
G0 F7200 X47.529 Y76.032 Z0.2
;TYPE:WALL-OUTER
G1 F1920 E0
G1 F2400 X47.38 Y76.045 E0.00497
G1 X47.193 Y76.043 E0.01119
G1 X47.034 Y76.025 E0.01652
G1 X46.884 Y75.991 E0.02163
G1 X46.704 Y75.929 E0.02796
G1 X46.579 Y75.871 E0.03255
G1 X46.409 Y75.767 E0.03918
G1 X46.167 Y75.557 E0.04983
G1 X46.055 Y75.423 E0.05564
G1 X45.972 Y75.301 E0.06055
G1 X45.898 Y75.163 E0.06576
G1 X45.823 Y74.976 E0.07246
G1 X45.781 Y74.815 E0.07799
G1 X45.759 Y74.676 E0.08267
G1 X45.749 Y74.486 E0.089
G1 X45.759 Y74.313 E0.09477
G1 X45.781 Y74.178 E0.09931
G1 X45.832 Y73.993 E0.1057
G1 X45.888 Y73.851 E0.11077
G1 X45.972 Y73.693 E0.11673
G1 X46.055 Y73.571 E0.12163
G1 X46.185 Y73.418 E0.12831
G1 X46.302 Y73.31 E0.13361
G1 X46.416 Y73.223 E0.13838
G1 X46.58 Y73.123 E0.14477
G1 X46.718 Y73.059 E0.14983
G1 X46.893 Y73.001 E0.15596
G1 X47.05 Y72.967 E0.1613
G1 X47.198 Y72.95 E0.16625
G1 X47.387 Y72.949 E0.17254
G1 X47.555 Y72.967 E0.17816
G1 X47.709 Y73.002 E0.18341
G1 X47.879 Y73.059 E0.18938
G1 X48.017 Y73.123 E0.19444
G1 X48.164 Y73.212 E0.20015
G1 X48.312 Y73.324 E0.20632
G1 X48.434 Y73.441 E0.21195
G1 X48.541 Y73.571 E0.21755
G1 X48.638 Y73.716 E0.22335
G1 X48.709 Y73.851 E0.22842
G1 X48.769 Y74.004 E0.23389
G1 X48.815 Y74.174 E0.23975
G1 X48.84 Y74.318 E0.24461
G1 X48.849 Y74.514 E0.25113
G1 X48.839 Y74.679 E0.25663
G1 X48.814 Y74.825 E0.26156
G1 X48.761 Y75.016 E0.26815
G1 X48.71 Y75.141 E0.27264
G1 X48.618 Y75.307 E0.27895
G1 X48.536 Y75.429 E0.28384
G1 X48.41 Y75.579 E0.29036
G1 X48.295 Y75.684 E0.29554
G1 X48.162 Y75.785 E0.30109
G1 X48.012 Y75.874 E0.30689
G1 X47.861 Y75.943 E0.31241
G1 X47.71 Y75.991 E0.31768
G1 X47.529 Y76.032 E0.32386
G0 F7200 X47.38 Y76.045
G0 X47.329 Y76.045
G1 F4800 E-1.67614
G0 F7200 X47.326 Y76.744
G0 X39.438 Y91.517
G0 X38.721 Y91.517
G1 F1920 E0.32386
G1 F2400 X38.737 Y91.573 E0.32579
G1 X38.737 Y104.723 E0.76317
G1 X38.713 Y104.8 E0.76585
G1 X38.673 Y104.849 E0.76795
G1 X38.613 Y104.887 E0.77031
G1 X38.573 Y104.899 E0.7717
G1 X21.876 Y104.901 E1.32705
G1 X21.876 Y108.687 E1.45297
G1 X41.819 Y108.688 E2.11628
G1 X41.872 Y108.704 E2.11812
G1 X41.945 Y108.759 E2.12116
G1 X41.972 Y108.801 E2.12282
G1 X41.989 Y108.863 E2.12496
G1 X41.989 Y124.846 E2.65655
G1 X41.963 Y124.918 E2.6591
G1 X41.924 Y124.966 E2.66116
G1 X41.864 Y125.003 E2.6635
G1 X41.825 Y125.015 E2.66486
G1 X20.97 Y125.018 E3.3585
G1 X20.97 Y128.8 E3.48429
G1 X114.924 Y128.8 E6.60921
G1 X114.925 Y115.977 E7.03571
G1 X114.945 Y115.909 E7.03806
G1 X114.99 Y115.851 E7.04051
G1 X115.02 Y115.828 E7.04176
G1 X115.106 Y115.8 E7.04477
G1 X153.85 Y115.8 E8.3334
G1 X153.927 Y115.824 E8.33608
G1 X153.982 Y115.869 E8.33845
G1 F2186.8 X154.069 Y116 E8.34419
G1 F1935.5 X154.088 Y116.137 E8.34989
G1 F1916.2 X154.074 Y116.54 E8.36669
G1 F1935.5 X154.083 Y116.952 E8.38369
G1 F2119.2 X154.032 Y117.383 E8.40003
G1 F2394 X154.03 Y128.8 E8.78071
G1 F2400 X179.03 Y128.8 E9.61222
G1 X179.03 Y117.278 E9.99544
G1 F1995.8 X178.949 Y116.913 E10.01039
G1 F1726.6 X178.955 Y116.516 E10.02875
G1 F1699.1 X178.941 Y116.127 E10.04704
G1 F1959.2 X179.029 Y115.689 E10.06524
G1 F2394 X179.03 Y89.719 E10.93117
G1 F1995.8 X178.949 Y89.354 E10.94612
G1 F1726.6 X178.955 Y88.957 E10.96447
G1 F1699.1 X178.941 Y88.568 E10.98276
G1 F1959.2 X179.029 Y88.13 E11.00096
G1 F2394 X179.03 Y71.203 E11.56537
G1 F2400 X21.88 Y71.201 E16.7922
G1 X21.88 Y72.881 E16.84807
G1 X38.539 Y72.881 E17.40215
G1 X38.659 Y72.92 E17.40635
G1 X38.724 Y73.003 E17.40986
G1 X38.739 Y73.081 E17.4125
G1 X38.74 Y86.181 E17.84821
G1 X38.73 Y86.244 E17.85033
G1 X38.702 Y86.298 E17.85235
G1 X38.637 Y86.356 E17.85525
G1 X38.557 Y86.381 E17.85804
G1 X21.879 Y86.382 E18.41275
G1 X21.879 Y91.4 E18.57965
G1 X38.556 Y91.4 E19.13433
G1 X38.636 Y91.425 E19.13712
G1 X38.701 Y91.483 E19.14001
G1 X38.721 Y91.517 E19.14132
G0 F7200 X38.737 Y91.573
G0 X38.737 Y91.715
G1 F4800 E17.14132
G0 F7200 X39.438 Y91.715
G0 X50.728 Y113.966
G0 X50.8 Y114.713
G0 X50.084 Y114.713
G1 F1920 E19.14132
G1 F2400 X50.099 Y114.769 E19.14325
G1 X50.1 Y119.874 E19.31305
G1 X50.063 Y119.99 E19.3171
G1 X50.041 Y120.017 E19.31825
G1 X49.933 Y120.072 E19.32229
G1 X44.796 Y120.073 E19.49314
G1 X44.752 Y120.062 E19.49465
G1 X44.692 Y120.027 E19.49696
G1 X44.642 Y119.962 E19.49969
G1 X44.624 Y119.909 E19.50155
G1 X44.622 Y114.794 E19.67168
G1 X44.645 Y114.699 E19.67493
G1 X44.702 Y114.634 E19.6778
G1 X44.765 Y114.601 E19.68017
G1 X44.822 Y114.594 E19.68208
G1 X49.964 Y114.604 E19.8531
G1 X50.024 Y114.636 E19.85536
G1 X50.084 Y114.713 E19.85861
G0 F7200 X50.099 Y114.769
G0 X50.099 Y114.912
G1 F4800 E17.85861
G0 F7200 X50.8 Y114.912
G0 X50.728 Y113.966
G0 X43.994 Y113.966
G0 X43.994 Y120.702
G0 X49.128 Y120.712
G0 X49.49 Y123.508
G0 X49.372 Y124.205
G0 X49.037 Y124.829
G0 X48.57 Y125.268
G0 X47.69 Y125.711
G0 X47.548 Y125.028
G1 F1920 E19.85861
G1 F2400 X47.381 Y125.045 E19.86419
G1 X47.212 Y125.045 E19.86981
G1 X47.035 Y125.024 E19.87574
G1 X46.882 Y124.99 E19.88096
G1 X46.729 Y124.939 E19.88632
G1 X46.561 Y124.861 E19.89248
G1 X46.409 Y124.767 E19.89842
G1 X46.19 Y124.58 E19.908
G1 X46.055 Y124.423 E19.91489
G1 X45.972 Y124.301 E19.9198
G1 X45.888 Y124.143 E19.92575
G1 X45.832 Y124.001 E19.93083
G1 X45.781 Y123.815 E19.93724
G1 X45.759 Y123.676 E19.94192
G1 X45.749 Y123.486 E19.94825
G1 X45.759 Y123.313 E19.95401
G1 X45.781 Y123.178 E19.95856
G1 X45.832 Y122.993 E19.96495
G1 X45.893 Y122.84 E19.97042
G1 X45.972 Y122.693 E19.97597
G1 X46.068 Y122.554 E19.98159
G1 X46.185 Y122.418 E19.98756
G1 X46.301 Y122.311 E19.99281
G1 X46.431 Y122.212 E19.99824
G1 X46.581 Y122.121 E20.00408
G1 X46.739 Y122.051 E20.00983
G1 X46.871 Y122.007 E20.01445
G1 X47.05 Y121.967 E20.02055
G1 X47.198 Y121.95 E20.02551
G1 X47.387 Y121.949 E20.0318
G1 X47.555 Y121.967 E20.03742
G1 X47.709 Y122.002 E20.04267
G1 X47.878 Y122.059 E20.0486
G1 X48.016 Y122.121 E20.05363
G1 X48.18 Y122.223 E20.06006
G1 X48.312 Y122.324 E20.06558
G1 X48.434 Y122.441 E20.07121
G1 X48.541 Y122.571 E20.07681
G1 X48.638 Y122.716 E20.08261
G1 X48.709 Y122.851 E20.08768
G1 X48.769 Y123.004 E20.09315
G1 X48.811 Y123.157 E20.09842
G1 X48.84 Y123.318 E20.10387
G1 X48.85 Y123.502 E20.10999
G1 X48.839 Y123.679 E20.11589
G1 X48.814 Y123.825 E20.12082
G1 X48.761 Y124.015 E20.12738
G1 X48.7 Y124.162 E20.13267
G1 X48.618 Y124.307 E20.13821
G1 X48.536 Y124.429 E20.1431
G1 X48.41 Y124.579 E20.14962
G1 X48.311 Y124.671 E20.15411
G1 X48.168 Y124.78 E20.16009
G1 X48.012 Y124.874 E20.16615
G1 X47.883 Y124.934 E20.17088
G1 X47.706 Y124.993 E20.17709
G1 X47.548 Y125.028 E20.18247
G0 F7200 X47.381 Y125.045
G0 X47.348 Y125.045
G1 F4800 E18.18247
G0 F7200 X47.345 Y125.744
G0 X50.248 Y126.781
G0 X102.704 Y126.781
G0 X102.776 Y125.971
G0 X102.076 Y125.971
G1 F1920 E20.18247
G1 F2400 X102.062 Y126.029 E20.18446
G1 X102.026 Y126.087 E20.18673
G1 X101.962 Y126.134 E20.18937
G1 X101.911 Y126.151 E20.19116
G1 X51.076 Y126.153 E21.88194
G1 X50.987 Y126.133 E21.88497
G1 X50.922 Y126.082 E21.88772
G1 X50.887 Y126.022 E21.89003
G1 X50.876 Y125.972 E21.89173
G1 X50.876 Y120.873 E22.06132
G1 X50.912 Y120.756 E22.0654
G1 X50.935 Y120.73 E22.06655
G1 X51.043 Y120.675 E22.07058
G1 X101.876 Y120.673 E23.76129
G1 X101.939 Y120.683 E23.76341
G1 X101.993 Y120.71 E23.76542
G1 X102.038 Y120.754 E23.76752
G1 X102.073 Y120.834 E23.77042
G1 X102.076 Y125.971 E23.94128
G0 F7200 X102.062 Y126.029
G0 X102.026 Y126.087
G0 X101.967 Y126.13
G0 X101.967 Y126.853
G0 X102.563 Y126.796
G0 X105.69 Y125.711
G0 X105.548 Y125.028
G1 F2400 X105.381 Y125.045 E23.94686
G1 X105.212 Y125.045 E23.95248
G1 X105.034 Y125.024 E23.95844
G1 X104.883 Y124.99 E23.96359
G1 X104.715 Y124.934 E23.96948
G1 X104.564 Y124.863 E23.97503
G1 X104.412 Y124.77 E23.98096
G1 X104.161 Y124.551 E23.99204
G1 X104.055 Y124.423 E23.99756
G1 X103.964 Y124.287 E24.00301
G1 X103.886 Y124.136 E24.00866
G1 X103.825 Y123.983 E24.01414
G1 X103.781 Y123.814 E24.01995
G1 X103.759 Y123.676 E24.02459
G1 X103.749 Y123.486 E24.03092
G1 X103.759 Y123.313 E24.03669
G1 X103.785 Y123.158 E24.04191
G1 X103.834 Y122.985 E24.04789
G1 X103.894 Y122.84 E24.05311
G1 X103.966 Y122.703 E24.05826
G1 X104.055 Y122.571 E24.06356
G1 X104.185 Y122.418 E24.07023
G1 X104.287 Y122.323 E24.07487
G1 X104.431 Y122.212 E24.08092
G1 X104.559 Y122.133 E24.08592
G1 X104.719 Y122.059 E24.09178
G1 X104.88 Y122.004 E24.09744
G1 X105.061 Y121.966 E24.10359
G1 X105.198 Y121.95 E24.10818
G1 X105.387 Y121.949 E24.11447
G1 X105.555 Y121.967 E24.12009
G1 X105.709 Y122.002 E24.12534
G1 X105.878 Y122.059 E24.13127
G1 X106.038 Y122.134 E24.13715
G1 X106.166 Y122.213 E24.14215
G1 X106.312 Y122.324 E24.14825
G1 X106.434 Y122.441 E24.15387
G1 X106.546 Y122.577 E24.15973
G1 X106.623 Y122.69 E24.16428
G1 X106.713 Y122.861 E24.17071
G1 X106.776 Y123.026 E24.17658
G1 X106.815 Y123.174 E24.18167
G1 X106.84 Y123.318 E24.18653
G1 X106.85 Y123.502 E24.19266
G1 X106.839 Y123.679 E24.19856
G1 X106.809 Y123.844 E24.20414
G1 X106.761 Y124.015 E24.21005
G1 X106.71 Y124.141 E24.21457
G1 X106.629 Y124.291 E24.22024
G1 X106.525 Y124.445 E24.22642
G1 X106.41 Y124.579 E24.23229
G1 X106.311 Y124.671 E24.23679
G1 X106.168 Y124.78 E24.24277
G1 X106.012 Y124.874 E24.24882
G1 X105.883 Y124.934 E24.25356
G1 X105.706 Y124.993 E24.25976
G1 X105.548 Y125.028 E24.26514
G0 F7200 X105.381 Y125.045
G0 X105.348 Y125.045
G1 F4800 E22.26514
G0 F7200 X105.345 Y125.744
G0 X105.883 Y125.609
G0 X114.286 Y122.8
G0 X114.296 Y115.172
G0 X150.007 Y111.769
G0 X150.079 Y111.022
G0 X149.363 Y111.022
G1 F1920 E24.26514
G1 F2400 X149.338 Y111.064 E24.26677
G1 X149.298 Y111.103 E24.26863
G1 X149.214 Y111.139 E24.27167
G1 X115.106 Y111.141 E25.4061
G1 X115.02 Y111.113 E25.40911
G1 X114.97 Y111.069 E25.41133
G1 X114.945 Y111.033 E25.41279
G1 X114.926 Y110.976 E25.41478
G1 X114.928 Y77.802 E26.51816
G1 X114.968 Y77.718 E26.52125
G1 X115.033 Y77.666 E26.52402
G1 X115.089 Y77.647 E26.52599
G1 X149.223 Y77.649 E27.66129
G1 X149.264 Y77.663 E27.66273
G1 X149.328 Y77.71 E27.66537
G1 X149.364 Y77.768 E27.66764
G1 X149.378 Y77.821 E27.66946
G1 X149.377 Y110.974 E28.77214
G1 X149.363 Y111.022 E28.7738
G0 F7200 X149.338 Y111.064
G0 X149.298 Y111.103
G0 X149.214 Y111.139
G0 X149.208 Y111.139
G0 X149.208 Y111.841
G0 X154.258 Y115.572
G0 X154.422 Y117.246
G0 X154.696 Y117.171
G1 F2051.3 X154.578 Y116.884 E28.78587
G1 F1931.6 X154.563 Y116.478 E28.80266
G1 F1912.4 X154.599 Y116.177 E28.81532
G1 F2100.7 X154.801 Y115.821 E28.83087
G1 F2400 X154.998 Y115.539 E28.84231
G1 X155.227 Y115.322 E28.85281
G1 X155.541 Y115.133 E28.865
G1 X155.881 Y115.025 E28.87686
G1 X156.205 Y114.991 E28.8877
G1 X156.549 Y115.028 E28.8992
G1 X156.871 Y115.136 E28.9105
G1 X157.171 Y115.315 E28.92212
G1 X157.421 Y115.551 E28.93355
G1 X157.611 Y115.83 E28.94478
G1 X157.743 Y116.152 E28.95636
G1 X157.8 Y116.504 E28.96822
G1 X157.784 Y116.849 E28.9797
G1 X157.696 Y117.169 E28.99074
G1 X157.529 Y117.487 E29.00269
G1 X157.286 Y117.768 E29.01504
G1 X157.023 Y117.965 E29.02597
G1 X156.692 Y118.115 E29.03806
G1 X156.398 Y118.179 E29.04807
G1 X156.009 Y118.179 E29.06101
G1 X155.671 Y118.101 E29.07254
G1 X155.36 Y117.949 E29.08406
G1 X155.089 Y117.738 E29.09548
G1 X154.867 Y117.469 E29.10708
G1 F2394 X154.726 Y117.209 E29.11694
G1 F2302.2 X154.696 Y117.171 E29.11862
G0 F7200 X154.62 Y116.986
G1 F4800 E27.11862
G0 F7200 X154.369 Y117.054
G0 X154.679 Y117.625
G0 X154.938 Y117.928
G0 X155.254 Y118.168
G0 X155.615 Y118.336
G0 X156.005 Y118.422
G0 X156.403 Y118.422
G0 X176.73 Y114.749
G0 X177.125 Y114.792
G0 X177.502 Y114.919
G0 X177.846 Y115.125
G0 X178.079 Y115.347
G0 X178.573 Y116.139
G0 X178.366 Y116.172
G1 F1920 E29.11862
G1 F1699.1 X178.403 Y116.529 E29.13548
G1 F1723.5 X178.391 Y116.865 E29.15105
G1 F1995.8 X178.067 Y117.469 E29.17847
G1 F2400 X177.813 Y117.768 E29.19152
G1 X177.539 Y117.971 E29.20286
G1 X177.219 Y118.115 E29.21453
G1 X176.925 Y118.179 E29.22454
G1 X176.536 Y118.179 E29.23748
G1 X176.198 Y118.1 E29.24902
G1 X175.916 Y117.967 E29.25939
G1 X175.616 Y117.738 E29.27194
G1 X175.405 Y117.487 E29.28285
G1 X175.254 Y117.208 E29.2934
G1 X175.152 Y116.86 E29.30546
G1 X175.133 Y116.498 E29.31752
G1 X175.184 Y116.174 E29.32843
G1 X175.317 Y115.839 E29.34042
G1 X175.518 Y115.546 E29.35223
G1 X175.76 Y115.317 E29.36332
G1 X176.078 Y115.13 E29.37559
G1 X176.366 Y115.034 E29.38568
G1 X176.752 Y114.992 E29.3986
G1 X177.095 Y115.034 E29.41009
G1 X177.423 Y115.148 E29.42164
G1 X177.715 Y115.329 E29.43307
G1 X177.964 Y115.573 E29.44466
G1 F2077.9 X178.323 Y116.119 E29.46976
G1 F1739.1 X178.366 Y116.172 E29.4729
G0 F7200 X178.386 Y116.371
G1 F4800 E27.4729
G0 F7200 X178.605 Y116.336
G0 X178.573 Y88.58
G0 X178.366 Y88.613
G1 F1920 E29.4729
G1 F1699.1 X178.403 Y88.957 E29.48915
G1 F1726.6 X178.391 Y89.306 E29.5053
G1 F1995.8 X178.067 Y89.91 E29.53271
G1 F2400 X177.813 Y90.209 E29.54576
G1 X177.539 Y90.412 E29.5571
G1 X177.219 Y90.556 E29.56877
G1 X176.925 Y90.62 E29.57878
G1 X176.536 Y90.62 E29.59172
G1 X176.198 Y90.541 E29.60326
G1 X175.902 Y90.401 E29.61415
G1 X175.616 Y90.179 E29.62619
G1 X175.406 Y89.929 E29.63705
G1 X175.245 Y89.63 E29.64835
G1 X175.152 Y89.301 E29.65972
G1 X175.133 Y88.939 E29.67178
G1 X175.184 Y88.615 E29.68268
G1 X175.317 Y88.28 E29.69467
G1 X175.514 Y87.991 E29.70631
G1 X175.765 Y87.754 E29.71779
G1 X176.078 Y87.571 E29.72985
G1 X176.366 Y87.475 E29.73994
G1 X176.752 Y87.433 E29.75286
G1 X177.095 Y87.475 E29.76435
G1 X177.423 Y87.589 E29.7759
G1 X177.715 Y87.77 E29.78733
G1 X177.964 Y88.014 E29.79892
G1 F2077.9 X178.323 Y88.56 E29.82402
G1 F1739.1 X178.366 Y88.613 E29.82716
G0 F7200 X178.387 Y88.812
G1 F4800 E27.82716
G0 F7200 X178.605 Y88.777
G0 X178.357 Y88.169
G0 X178.134 Y87.841
G0 X177.846 Y87.566
G0 X177.502 Y87.36
G0 X177.125 Y87.233
G0 X176.73 Y87.19
G0 X156.378 Y91.324
G0 X156.378 Y90.623
G1 F1920 E29.82716
G1 F2400 X156.009 Y90.62 E29.83943
G1 X155.671 Y90.541 E29.85098
G1 X155.36 Y90.39 E29.86247
G1 X155.089 Y90.179 E29.8739
G1 X154.867 Y89.91 E29.8855
G1 X154.727 Y89.649 E29.89535
G1 X154.623 Y89.292 E29.90772
G1 X154.606 Y88.957 E29.91887
G1 X154.667 Y88.583 E29.93148
G1 X154.801 Y88.262 E29.94305
G1 X154.97 Y88.013 E29.95306
G1 X155.254 Y87.744 E29.96607
G1 X155.511 Y87.589 E29.97605
G1 X155.881 Y87.466 E29.98902
G1 X156.205 Y87.432 E29.99985
G1 X156.549 Y87.469 E30.01136
G1 X156.896 Y87.589 E30.02357
G1 X157.178 Y87.761 E30.03456
G1 X157.42 Y87.991 E30.04566
G1 X157.616 Y88.28 E30.05728
G1 X157.743 Y88.593 E30.06851
G1 X157.8 Y88.945 E30.08037
G1 X157.784 Y89.29 E30.09186
G1 X157.689 Y89.63 E30.1036
G1 X157.534 Y89.92 E30.11454
G1 X157.315 Y90.183 E30.12592
G1 X157.028 Y90.403 E30.13795
G1 X156.722 Y90.547 E30.1492
G1 X156.378 Y90.623 E30.16091
G0 F7200 X156.178 Y90.622
G1 F4800 E28.16091
G0 F7200 X156.178 Y91.324
G0 X155.486 Y91.158
G0 X150.016 Y89.382
G0 X150.007 Y77.017
